X: 1
T: Hanna Larssons schottis
C: av Peter Larsson
R: shottish
S: Fiddle Hell Online 2020-11-05
Z: 2020 John Chambers <jc:trillian.mit.edu>
M: 2/4
L: 1/16
K: C	% and Cm
"^A"|: "C"CEGc e2dc | "F"BdA2 A3c | "G"BdA2 [1,3 A2BA | "C"GcE2 GFED :|[2 A2B2 | "C"c4 c4 :|[4 A2B2 | "C"c4 cdcB |]
"^B"|: "F"A2FA dcBA | "C"G2EG cBAG | "G"G2GE D2ED |[1,3 "C"C2E2 G2cB :|[2 "C"C2E2 C2cB :|[4 "C"C2E2C4 |]\
[K:Cm]\
"^C"|:"Cm"G2ce g2fe | "G"e2dd d2d2 |
G2=Bd Bfed |1,3 "Cm"c2e2 g3c :|[2 "Cm"c2e2 c4 :|[4 "Cm"c2e2 c2g2 \
"^D"|: "G"fgeg dgcg | cg=B2 B2g2 | fgeg dg=Bg |[1,3 "Cm"c2de g4 :|[2,4 "Cm"c4 c4 :|
